X: 10
T:Star of Munster, The
M:C|
L:1/8
F:http://blackrosetheband.googlepages.com/ABCTUNES.ABC May 2009
R:Reel
N:Also in Edor, #626
D:Chieftains Live.
Z:id:hn-reel-11
K:Ador
|:"Am"c2cA "G"B2BG|"Am"AGEA "G"GEDG|"Am"EAAB cBcd|"G"e2ge "(Em)"dBGB|
"Am"(3cde cA "G"(3Bcd BG|"Am"EAAF "G"GEDG|"Am"EAAG "(D)"ABcd|"Em"(3efg "(G)"dB "Am"~A3z:|
|:"Am"eaab ae~e2|aebe aeef|"G"g2fa gede|geae gedB|
"Am"Aaab ae~e2|aebe agef|"G"~g3e "D"a2ga|1 "Em"~b3a "G"gedg:|2 "Em"bgaf "G"gedB||

